X: 41048
T: Trip To Manila, The
R: reel
M: 4/4
K: Cmajor
GAB|:c ~c3 cAGE|CE~E2 CDEG|cGdG cega|gece d2ed|
cEGc A2cA|GE~E2 GAce|edcd Afdc|1 BG(3ABc cGAB:|2 BG(3ABc cdef||
|:gc~c2 acc'c|gc~c2 dcAc|gc~c2 acc'c|Aceg d2ef|
gc~c2 acc'c|gc~c2 dcAe|edcd Afdc|1 BG(3ABc cdef:|2 BG(3ABc cGAB||

